icons/tokens/0x429881672B9AE42b8EbA0E26cD9C73711b891Ca5/logo-alt.svg

<svg xmlns="http://www.w3.org/2000/svg" width="32" height="32" viewBox="0 0 32 32">
  <g fill="none" fill-rule="evenodd">
    <path fill="#000" d="M32,16 C32,13.90592 31.58336,11.81184 30.78208,9.87712 C29.9808,7.9424 28.79456,6.16704 27.3136,4.6864 C25.83296,3.20544 24.0576,2.0192 22.12288,1.21792 C20.18816,0.41664 18.09408,0 16,0 C13.90592,0 11.81184,0.41664 9.87712,1.21792 C7.9424,2.0192 6.16704,3.20544 4.6864,4.6864 C3.20544,6.16704 2.0192,7.9424 1.21792,9.87712 C0.41664,11.81184 0,13.90592 0,16 C0,18.09408 0.41664,20.18816 1.21792,22.12288 C2.0192,24.0576 3.20544,25.83296 4.6864,27.3136 C6.16704,28.79456 7.9424,29.9808 9.87712,30.78208 C11.81184,31.58336 13.90592,32 16,32 C18.09408,32 20.18816,31.58336 22.12288,30.78208 C24.0576,29.9808 25.83296,28.79456 27.3136,27.3136 C28.79456,25.83296 29.9808,24.0576 30.78208,22.12288 C31.58336,20.18816 32,18.09408 32,16 Z"/>
    <path fill="#13A10E" d="M19.7824,7.4432 C18.88736,8.45376 17.96768,9.44256 17.02336,10.4096 C15.13472,12.34368 13.14528,14.16864 11.05536,15.88448 C10.01056,16.7424 8.9408,17.56608 7.8464,18.35584 C7.21376,18.81248 6.71232,19.4496 6.41824,20.17152 C6.12384,20.89344 6.03712,21.70016 6.17056,22.46848 C6.304,23.2368 6.65792,23.9664 7.17824,24.54688 C7.69888,25.12768 8.38592,25.55872 9.13504,25.77504 C9.88416,25.99136 10.69568,25.99264 11.33056,25.85024 C11.96576,25.70784 12.42432,25.42176 14.61824,23.63104 C16.78784,21.86016 20.65472,18.61792 25.0432,11.65952 C25.43552,10.97568 25.584,10.12032 25.43648,9.32672 C25.28864,8.53344 24.84512,7.8016 24.21792,7.2992 C23.59072,6.79648 22.78016,6.52256 21.97376,6.55136 C21.16704,6.58016 20.36448,6.91104 19.7824,7.4432 Z"/>
    <path fill="#107C10" d="M6.1093827,21.73312 C6.10816,21.97952 6.12832,22.22592 6.17056,22.46848 C6.304,23.2368 6.65792,23.9664 7.17824,24.54688 C7.69888,25.12768 8.38592,25.55872 9.13504,25.77504 C9.88416,25.99136 10.69568,25.99264 11.33056,25.85024 C11.96576,25.70784 12.42432,25.42176 14.61824,23.63104 C16.78784,21.86016 20.65472,18.61792 25.0432,11.65952 C25.16128,11.45344 25.2576,11.23488 25.33184,11.00384 C25.48032,10.54144 25.52768,10.06912 25.47456,9.58656 C25.44768,9.34528 25.39712,9.112 25.32224,8.88672 C20.73856,15.37344 17.09216,18.712 14.72352,20.6784 C12.35456,22.6448 11.26336,23.23904 10.29632,23.45504 C9.32928,23.67104 8.48672,23.50912 7.4576,22.89344 C7.024,22.63392 6.55776,22.29408 6.1093827,21.73312 Z"/>
    <path fill="#16C50C" d="M8.5488 19.6582311C8.4 19.6576 8.2512 19.69152 8.10304 19.76 7.8064 19.89664 7.61408 20.12224 7.52608 20.43648 7.48192 20.5936 7.472 20.7456 7.49568 20.8928 7.50848 20.97088 7.55488 21.04704 7.6208 21.09472 7.6864 21.1424 7.77184 21.16224 7.85184 21.14912 7.93184 21.13632 8.0064 21.09056 8.05376 21.02432 8.1008 20.95808 8.12064 20.87136 8.10816 20.79328 8.09824 20.73184 8.1024 20.66848 8.12064 20.60288 8.15744 20.472 8.23776 20.37792 8.36128 20.32096 8.42304 20.29248 8.48512 20.2784 8.5472 20.2784 8.62624 20.27872 8.7088 20.24544 8.76672 20.18816 8.82464 20.1312 8.85792 20.05024 8.85824231 19.96928 8.85856 19.88832 8.8256 19.80704 8.768 19.74976 8.7104 19.69216 8.62816 19.6582311 8.5488 19.6582311zM11.33984 19.6252778C11.19072 19.62496 11.04224 19.65888 10.89408 19.72704 10.59744 19.86368 10.40512 20.08928 10.31712 20.40352 10.27296 20.56064 10.26272 20.71296 10.28672 20.86016 10.29952 20.93824 10.34592 21.01408 10.41152 21.06176 10.47744 21.10976 10.56288 21.12928 10.64256 21.11648 10.72256 21.10336 10.79744 21.0576 10.84448 20.99136 10.89184 20.92512 10.91168 20.8384 10.89888 20.76032 10.88896 20.6992 10.89312 20.63552 10.91168 20.57024 10.94848 20.43904 11.02848 20.34496 11.15232 20.288 11.21408 20.25952 11.27584 20.24544 11.33792 20.24576 11.41728 20.24576 11.49984 20.21248 11.55776 20.15552 11.61568 20.09824 11.64896 20.01728 11.64928 19.93632 11.64928 19.85536 11.61664 19.7744 11.55904 19.7168 11.50144 19.6592 11.41888 19.6256 11.33984 19.6252778zM12.09504 16.8342378C11.94592 16.83392 11.79744 16.86784 11.64928 16.93632 11.35264 17.07296 11.16032 17.29824 11.07232 17.6128 11.02816 17.76992 11.01792 17.92192 11.04192 18.06912 11.05472 18.1472 11.10112 18.22304 11.16672 18.27104 11.23264 18.31872 11.31808 18.33856 11.39776 18.32544 11.47776 18.31232 11.55264 18.26656 11.59968 18.20064 11.64704 18.1344 11.66688 18.04768 11.65408 17.9696 11.64416 17.90816 11.64832 17.8448 11.66688 17.7792 11.70368 17.648 11.78368 17.55424 11.9072 17.49728 11.96928 17.4688 12.03104 17.4544 12.09312 17.45472 12.17248 17.45504 12.25504 17.42176 12.31296 17.36448 12.37088 17.30752 12.40416 17.22656 12.40448 17.14528 12.40448 17.06432 12.37184 16.98336 12.31424 16.92576 12.25664 16.86848 12.17408 16.83456 12.09504 16.8342378zM14.78752 16.8671978C14.6384 16.86688 14.48992 16.9008 14.34144 16.96896 14.04512 17.1056 13.8528 17.3312 13.76448 17.64544 13.72064 17.80256 13.7104 17.95488 13.7344 18.10208 13.7472 18.18016 13.7936 18.256 13.8592 18.30368 13.92512 18.35168 14.01024 18.3712 14.09024 18.35808 14.17024 18.34528 14.2448 18.29952 14.29216 18.23328 14.33952 18.16704 14.35936 18.08032 14.34656 18.00224 14.33664 17.9408 14.3408 17.87744 14.35936 17.81216 14.39616 17.68096 14.47616 17.58688 14.59968 17.52992 14.66144 17.50144 14.72352 17.48736 14.7856 17.48768 14.86496 17.48768 14.9472 17.4544 15.00544 17.39744 15.06336 17.34016 15.0966423 17.2592 15.0966423 17.17824 15.09696 17.09728 15.064 17.016 15.00672 16.95872 14.94912 16.90112 14.86656 16.86752 14.78752 16.8671978zM15.47712 14.1091178C15.328 14.1088 15.17952 14.14272 15.03104 14.21088 14.73472 14.34752 14.5424 14.57312 14.45408 14.88736 14.40992 15.04448 14.4 15.1968 14.424 15.34368 14.43648 15.42208 14.48288 15.49792 14.5488 15.5456 14.61472 15.5936 14.69984 15.61312 14.77984 15.6 14.85984 15.5872 14.9344 15.54144 14.98176 15.4752 15.02912 15.40896 15.04896 15.32224 15.03616 15.24416 15.02624 15.18272 15.0304 15.11936 15.04864 15.05376 15.08544 14.92288 15.16576 14.8288 15.28928 14.77184 15.35104 14.74336 15.41312 14.72928 15.4752 14.72928 15.55424 14.7296 15.6368 14.69632 15.69472 14.63936 15.75264 14.58208 15.78592 14.50112 15.7862423 14.42016 15.78656 14.3392 15.7536 14.25792 15.696 14.20064 15.6384 14.14304 15.55616 14.10944 15.47712 14.1091178zM18.26784 14.1420711C18.11904 14.14144 17.97024 14.17536 17.82208 14.24384 17.52544 14.38048 17.33312 14.60608 17.24512 14.92032 17.20096 15.07744 17.19104 15.22944 17.21472 15.37664 17.22752 15.45472 17.27392 15.53088 17.33984 15.57856 17.40544 15.62624 17.49088 15.64608 17.57088 15.63296 17.65088 15.61984 17.72544 15.5744 17.7728 15.50816 17.81984 15.44192 17.83968 15.3552 17.8272 15.27712 17.81728 15.21568 17.82144 15.15232 17.83968 15.08672 17.87648 14.95584 17.9568 14.86176 18.08032 14.8048 18.14208 14.77632 18.20416 14.76192 18.26624 14.76224 18.34528 14.76256 18.42784 14.72928 18.48576 14.672 18.54368 14.61504 18.57696 14.53408 18.5772823 14.45312 18.5776 14.37184 18.54464 14.29088 18.48704 14.23328 18.42944 14.176 18.3472 14.1420711 18.26784 14.1420711zM18.26784 11.3510312C18.11904 11.3504 17.97024 11.38464 17.82208 11.4528 17.52544 11.58944 17.33312 11.81504 17.24512 12.12928 17.20096 12.2864 17.19104 12.43872 17.21472 12.5856 17.22752 12.66368 17.27392 12.73984 17.33984 12.78752 17.40544 12.83552 17.49088 12.85504 17.57088 12.84192 17.65088 12.82912 17.72544 12.78336 17.7728 12.71712 17.81984 12.65088 17.83968 12.56416 17.8272 12.48608 17.81728 12.42464 17.82144 12.36128 17.83968 12.29568 17.87648 12.1648 17.9568 12.07072 18.08032 12.01376 18.14208 11.98528 18.20416 11.9712 18.26624 11.9712 18.34528 11.97152 18.42784 11.93824 18.48576 11.88096 18.54368 11.824 18.57696 11.74304 18.5772823 11.66208 18.5776 11.58112 18.54464 11.49984 18.48704 11.44256 18.42944 11.38496 18.3472 11.35136 18.26784 11.3510312zM21.71552 10.6284778C21.56672 10.62816 21.41792 10.66208 21.26976 10.73056 20.97312 10.8672 20.7808 11.09248 20.6928 11.40704 20.64864 11.56416 20.6384 11.71616 20.6624 11.86336 20.6752 11.94144 20.7216 12.01728 20.7872 12.06528 20.85312 12.11296 20.93856 12.1328 21.01856 12.11968 21.09824 12.10656 21.17312 12.06112 21.22016 11.99488 21.26752 11.92864 21.28736 11.84192 21.27488 11.76384 21.26464 11.7024 21.2688 11.63904 21.28736 11.57344 21.32416 11.44256 21.40416 11.34848 21.528 11.29152 21.58976 11.26304 21.65152 11.24864 21.71392 11.24896 21.79296 11.24928 21.87552 11.216 21.93344 11.15872 21.99136 11.10176 22.02464 11.0208 22.02496 10.93984 22.02496 10.85856 21.99232 10.7776 21.93472 10.72 21.87712 10.66272 21.79488 10.6288 21.71552 10.6284778zM21.74848 7.93631111C21.59936 7.93568 21.45088 7.9696 21.3024 8.03808 21.00608 8.17472 20.81376 8.40032 20.72544 8.71456 20.68128 8.87168 20.67136 9.02368 20.69536 9.17088 20.70816 9.24896 20.75424 9.32512 20.82016 9.3728 20.88608 9.42048 20.9712 9.44032 21.0512 9.4272 21.1312 9.41408 21.20576 9.36864 21.25312 9.3024 21.30048 9.23616 21.32032 9.14944 21.30752 9.07136 21.2976 9.00992 21.30176 8.94656 21.32032 8.88096 21.3568 8.75008 21.43712 8.656 21.56064 8.59904 21.6224 8.57056 21.68448 8.55648 21.74656 8.55648 21.8256 8.5568 21.90816 8.52352 21.96608 8.46624 22.024 8.40928 22.0576023 8.32832 22.0576023 8.24736 22.05792 8.1664 22.02496 8.08512 21.96736 8.02784 21.90976 7.97024 21.82752 7.93631111 21.74848 7.93631111z"/>
    <path fill="#13A00E" d="M24.0448 12.32192C24.0448 12.24096 24.0112 12.16 23.95392 12.10272 23.89664 12.04544 23.81568 12.01184 23.73472 12.01184 23.65376 12.01184 23.57248 12.04544 23.5152 12.10272 23.45792 12.16 23.42432 12.24096 23.42432 12.32192 23.42432 12.40288 23.45792 12.48416 23.5152 12.54144 23.57248 12.59872 23.65376 12.63232 23.73472 12.63232 23.81568 12.63232 23.89664 12.59872 23.95392 12.54144 24.0112 12.48416 24.0448 12.40288 24.0448 12.32192zM12.64672 24.5097689C12.79552 24.5104 12.94432 24.47648 13.09248 24.408 13.38912 24.27136 13.58144 24.04576 13.66944 23.73152 13.7136 23.5744 13.72384 23.4224 13.69984 23.2752 13.68704 23.19712 13.64064 23.12096 13.57472 23.07328 13.50912 23.0256 13.42368 23.00576 13.34368 23.01888 13.26368 23.032 13.18912 23.07744 13.14176 23.14368 13.09472 23.20992 13.07488 23.29664 13.08736 23.37472 13.0976 23.43616 13.09312 23.49952 13.07488 23.56512 13.03808 23.696 12.95776 23.79008 12.83424 23.84704 12.77248 23.87552 12.7104 23.8896 12.64832 23.8896 12.56928 23.88928 12.48672 23.92256 12.4288 23.97984 12.37088 24.0368 12.3376 24.11776 12.3372777 24.19872 12.33696 24.27968 12.36992 24.36096 12.42752 24.41824 12.48512 24.47584 12.56736 24.5097689 12.64672 24.5097689zM15.41312 21.8092822C15.56192 21.8096 15.71072 21.77568 15.85888 21.70752 16.15552 21.57088 16.34784 21.34528 16.43584 21.03104 16.48 20.87392 16.49024 20.7216 16.46624 20.57472 16.45344 20.49664 16.40704 20.42048 16.34112 20.3728 16.27552 20.3248 16.19008 20.30528 16.11008 20.3184 16.0304 20.3312 15.95552 20.37696 15.90848 20.4432 15.86112 20.50944 15.84128 20.59616 15.85376 20.67424 15.864 20.73568 15.85952 20.79904 15.84128 20.86464 15.80448 20.99552 15.72448 21.0896 15.60064 21.14656 15.53888 21.17504 15.47712 21.18912 15.41472 21.18912 15.33568 21.1888 15.25312 21.22208 15.1952 21.27904 15.13728 21.33632 15.104 21.41728 15.10368 21.49824 15.10368 21.5792 15.13632 21.66048 15.19392 21.71776 15.25152 21.77536 15.33376 21.80896 15.41312 21.8092822zM18.17952 19.0649622C18.32864 19.06528 18.47712 19.03136 18.62528 18.96288 18.92192 18.82624 19.11424 18.60096 19.20224 18.2864 19.2464 18.12928 19.25664 17.97728 19.23264 17.83008 19.21984 17.752 19.17344 17.67616 19.10784 17.62816 19.04192 17.58048 18.95648 17.56064 18.87648 17.57376 18.7968 17.58688 18.72192 17.63264 18.67488 17.69856 18.62752 17.7648 18.60768 17.85152 18.62016 17.92992 18.6304 17.99104 18.62624 18.0544 18.60768 18.12 18.57088 18.2512 18.49088 18.34496 18.36704 18.40192 18.30528 18.4304 18.24352 18.4448 18.18112 18.44448 18.10208 18.44416 18.01952 18.47776 17.9616 18.53472 17.90368 18.59168 17.8704 18.67264 17.87008 18.75392 17.87008 18.83488 17.90272 18.91584 17.96032 18.97344 18.01792 19.03072 18.10016 19.06464 18.17952 19.0649622zM20.84704 16.2656022C20.99616 16.26592 21.14464 16.232 21.29312 16.16352 21.58944 16.02688 21.78176 15.8016 21.87008 15.48704 21.91392 15.32992 21.92416 15.17792 21.90016 15.03072 21.88736 14.95264 21.84128 14.8768 21.77536 14.8288 21.70944 14.78112 21.62432 14.76128 21.54432 14.7744 21.46432 14.78752 21.38976 14.83328 21.3424 14.8992 21.29504 14.96544 21.2752 15.05216 21.288 15.13056 21.29792 15.19168 21.29376 15.25504 21.2752 15.32064 21.23872 15.45184 21.1584 15.5456 21.03488 15.60256 20.97312 15.63104 20.91104 15.64544 20.84896 15.64512 20.7696 15.6448 20.68736 15.6784 20.62944 15.73536 20.57152 15.79264 20.5379177 15.87328 20.5379177 15.95456 20.5376 16.03552 20.57056 16.11648 20.62816 16.17408 20.68576 16.23136 20.768 16.26528 20.84704 16.2656022z"/>
  </g>
</svg>

<svg xmlns="http://www.w3.org/2000/svg" width="32" height="32"><g fill="none" fill-rule="evenodd"><path fill="#000" d="M32 16c0-2.094-.417-4.188-1.218-6.123a16.047 16.047 0 00-3.468-5.19 16.047 16.047 0 00-5.191-3.47A16.055 16.055 0 0016 0c-2.094 0-4.188.417-6.123 1.218a16.047 16.047 0 00-5.19 3.468 16.047 16.047 0 00-3.47 5.191A16.055 16.055 0 000 16c0 2.094.417 4.188 1.218 6.123a16.047 16.047 0 003.468 5.19 16.047 16.047 0 005.191 3.47A16.055 16.055 0 0016 32c2.094 0 4.188-.417 6.123-1.218a16.047 16.047 0 005.19-3.468 16.047 16.047 0 003.47-5.191A16.055 16.055 0 0032 16z"/><path fill="#13A10E" d="M19.782 7.443c-.895 1.01-1.814 2-2.759 2.967a73.7 73.7 0 01-5.968 5.474 64.91 64.91 0 01-3.209 2.472 4.216 4.216 0 00-1.428 1.816 4.215 4.215 0 00-.247 2.296 4.216 4.216 0 001.007 2.079 4.217 4.217 0 001.957 1.228c.75.216 1.56.218 2.196.075.635-.142 1.093-.428 3.287-2.219 2.17-1.77 6.037-5.013 10.425-11.971.393-.684.541-1.54.393-2.333a3.432 3.432 0 00-1.218-2.028 3.43 3.43 0 00-2.244-.748 3.49 3.49 0 00-2.192.892z"/><path fill="#107C10" d="M6.11 21.733a4.168 4.168 0 001.068 2.814 4.217 4.217 0 001.957 1.228c.75.216 1.56.218 2.196.075.635-.142 1.093-.428 3.287-2.219 2.17-1.77 6.037-5.013 10.425-11.971a3.419 3.419 0 00.28-2.773c-4.584 6.486-8.23 9.825-10.6 11.791-2.368 1.967-3.46 2.561-4.427 2.777-.967.216-1.81.054-2.838-.562-.434-.26-.9-.599-1.349-1.16z"/><path fill="#16C50C" d="M8.549 19.658c-.149 0-.298.034-.446.102a1.013 1.013 0 00-.577.676c-.044.158-.054.31-.03.457a.312.312 0 00.558.132.321.321 0 00.054-.232.441.441 0 01.013-.19.423.423 0 01.24-.282.44.44 0 01.186-.043.312.312 0 00.22-.529.317.317 0 00-.218-.09zm2.79-.033c-.148 0-.297.034-.445.102a1.013 1.013 0 00-.577.677c-.044.157-.054.309-.03.456a.313.313 0 00.356.256.313.313 0 00.256-.356.435.435 0 01.013-.19.422.422 0 01.24-.282.434.434 0 01.186-.042.32.32 0 00.22-.09.314.314 0 00.091-.22.314.314 0 00-.09-.22.32.32 0 00-.22-.09zm.756-2.79c-.15-.001-.298.033-.446.101a1.012 1.012 0 00-.577.677c-.044.157-.054.309-.03.456a.32.32 0 00.125.202.313.313 0 00.433-.07.318.318 0 00.054-.231.436.436 0 01.013-.19.422.422 0 01.24-.283.437.437 0 01.186-.042c.08 0 .162-.033.22-.09a.313.313 0 00.001-.44.32.32 0 00-.219-.09zm2.693.032c-.15 0-.298.034-.447.102a1.015 1.015 0 00-.577.676c-.043.158-.054.31-.03.457a.311.311 0 00.558.131.318.318 0 00.055-.23.435.435 0 01.012-.19.423.423 0 01.24-.283.435.435 0 01.187-.042c.079 0 .161-.034.22-.09a.312.312 0 000-.44.32.32 0 00-.218-.09zm.69-2.758c-.15 0-.298.034-.447.102a1.015 1.015 0 00-.577.676c-.044.157-.054.31-.03.457a.311.311 0 00.558.132.318.318 0 00.054-.232.441.441 0 01.013-.19.423.423 0 01.24-.282.44.44 0 01.186-.043.319.319 0 00.22-.09.312.312 0 00-.218-.53zm2.79.033c-.149 0-.298.033-.446.102a1.013 1.013 0 00-.577.676c-.044.157-.054.31-.03.457a.312.312 0 00.558.132.321.321 0 00.054-.232.441.441 0 01.013-.19.423.423 0 01.24-.282.436.436 0 01.186-.043.312.312 0 00.22-.529.318.318 0 00-.218-.09zm0-2.791c-.149 0-.298.034-.446.102a1.013 1.013 0 00-.577.676c-.044.157-.054.31-.03.457a.31.31 0 00.612-.1.441.441 0 01.013-.19.423.423 0 01.24-.282.44.44 0 01.186-.043.312.312 0 00.22-.529.319.319 0 00-.218-.091zm3.448-.723a1.05 1.05 0 00-.446.103 1.012 1.012 0 00-.577.676c-.044.157-.055.31-.03.456a.32.32 0 00.124.202.312.312 0 00.488-.301.431.431 0 01.012-.19.422.422 0 01.241-.282.435.435 0 01.186-.043.312.312 0 00.22-.529.32.32 0 00-.218-.092zm.032-2.692c-.149 0-.297.034-.446.102a1.015 1.015 0 00-.577.677c-.044.157-.054.309-.03.456a.319.319 0 00.125.202.313.313 0 00.433-.07.318.318 0 00.055-.232.436.436 0 01.012-.19.422.422 0 01.24-.282.44.44 0 01.187-.043.311.311 0 00.22-.529.317.317 0 00-.219-.09z"/><path fill="#13A00E" d="M24.045 12.322a.314.314 0 00-.091-.22.314.314 0 00-.22-.09.315.315 0 00-.219.09.314.314 0 00-.09.22c0 .08.033.162.09.22a.314.314 0 00.439 0 .315.315 0 00.09-.22zM12.647 24.51c.149 0 .297-.034.445-.102.297-.137.49-.362.577-.676.045-.158.055-.31.03-.457a.312.312 0 00-.558-.132.321.321 0 00-.054.232.436.436 0 01-.012.19.423.423 0 01-.24.282.44.44 0 01-.187.043.312.312 0 00-.22.529c.057.057.14.09.219.09zm2.766-2.7c.149 0 .298-.034.446-.102.297-.137.489-.363.577-.677.044-.157.054-.31.03-.456a.31.31 0 00-.612.1.436.436 0 01-.013.19.422.422 0 01-.24.282.44.44 0 01-.186.042.319.319 0 00-.22.09.314.314 0 00-.091.22c0 .08.032.161.09.219.058.057.14.091.22.091zm2.767-2.745c.149 0 .297-.034.445-.102.297-.137.49-.362.577-.677.044-.157.055-.309.03-.456a.32.32 0 00-.124-.202.313.313 0 00-.232-.054.314.314 0 00-.201.125.32.32 0 00-.055.23.43.43 0 01-.012.191.422.422 0 01-.241.282.435.435 0 01-.186.042.313.313 0 00-.22.529.32.32 0 00.219.092zm2.667-2.8c.15 0 .298-.033.446-.101.296-.137.489-.362.577-.677.044-.157.054-.31.03-.456a.32.32 0 00-.125-.202.313.313 0 00-.433.07.318.318 0 00-.054.232.435.435 0 01-.013.19.421.421 0 01-.24.282.436.436 0 01-.186.042.312.312 0 00-.22.529.32.32 0 00.218.092z"/></g></svg>
